X: 1758
T: Where Did You Find Her?   #2
R: hornpipe, reel
%S: s:2 b:12(6+6)
B: O'Neill's 1850 #1758
O: McFadden
R: Hornpipe
Z: Bob Safranek, rjs@gsp.org
Z: Compacted via repeats and multiple endings [JC]
M: C|
L: 1/8
K: D
{g}fe | dAFA DAFA | dAGA D2{A}FA |\
[1,3 ((3Bcd) ef gefd | edcB Ag :|\
[2,4 B>ged cABc | d2f2 d2 :|
|: (fg) |: afdf .A>(dcd) | .F>(dcd) .A>(dcd) |\
[1,3 ((3Bcd) ef gefd | cdef e2(b^g) :|\
[2,4  B>ged cABc | d2f2 d2 :|
